svg_80x80/uno.svg

<svg viewBox="0 0 80 80" xmlns="http://www.w3.org/2000/svg">
<rect width="100%" height="100%" fill="white"/>
<path fill-rule="evenodd" clip-rule="evenodd" d="M52.1635 57.9193H52.1488C48.5224 57.9128 45.2821 55.372 41.2293 51.2754L32.4236 42.4474L35.1759 39.6365L43.9901 48.4728C47.8972 52.4225 50.1852 53.9604 52.1558 53.9641H52.1626C54.1531 53.9641 56.5675 52.3441 60.4945 48.374L64.9941 43.7661C67.2608 41.4745 68.2586 39.4772 68.0543 37.65C67.8878 36.1648 66.9184 34.5713 65.003 32.6351L64.9611 32.5913C62.8924 30.3676 60.3628 27.887 57.7202 26.5137C57.2291 23.9748 55.6216 21.9753 55.3928 21.6094C60.2257 22.3272 64.5384 26.3658 67.7913 29.8606C71.3343 33.449 75.1651 39.0777 67.7696 46.5536L63.2703 51.1618C59.1402 55.3368 55.8455 57.9193 52.1635 57.9193Z" fill="#7A67F8"/>
<path fill-rule="evenodd" clip-rule="evenodd" d="M40.2718 44.7453L48.5203 36.3165C52.4293 32.3653 53.9506 30.0524 53.9543 28.0603C53.9583 26.0472 52.356 23.6049 48.4244 19.6309L43.8661 15.0826C39.2318 10.3984 36.4221 11.467 32.8547 15.0733L32.8116 15.1159C30.8556 16.975 28.6992 19.2026 27.2903 21.5511C25.98 21.644 24.2897 22.0951 22.2118 23.5002C23.3627 19.1378 26.9595 15.2515 30.1097 12.2547C33.6601 8.67308 39.2281 4.80033 46.6233 12.2766L51.1822 16.8249C55.3178 21.0055 57.8736 24.3398 57.8669 28.0677C57.8599 31.7333 55.3471 35.0089 51.2943 39.1058L43.05 47.5306L40.2718 44.7453Z" fill="#F85977"/>
<path fill-rule="evenodd" clip-rule="evenodd" d="M23.9106 57.717C19.3584 56.7391 15.3007 52.9192 12.2036 49.592C10.5854 47.9531 8.40767 45.4161 8.05275 42.247C7.70548 39.1458 9.07015 36.0876 12.225 32.8984L16.7246 28.2902C20.8541 24.1155 24.1497 21.5327 27.8311 21.5327H27.8461C31.4725 21.5395 34.7128 24.0797 38.7653 28.1766L47.7179 37.1367L44.9665 39.9486L36.0057 30.9801C32.0974 27.0295 29.8094 25.4913 27.8387 25.4879H27.8317C25.8418 25.4879 23.4271 27.108 19.5004 31.078L15.0008 35.6859C12.7341 37.9778 11.7357 39.9754 11.9403 41.802C12.1068 43.2875 13.0762 44.8807 14.9916 46.8166L15.0337 46.8607C17.0035 48.9785 19.3917 51.3291 21.8968 52.7342C22.11 54.9678 23.4216 56.9689 23.9106 57.717Z" fill="#159BFF"/>
<path fill-rule="evenodd" clip-rule="evenodd" d="M41.4427 72C38.9962 72 36.2149 70.8616 33.1102 67.723L28.5516 63.1754C19.6476 54.1741 19.6271 49.8027 28.4392 40.8942L37.082 32.0674L39.8673 34.845L31.2131 43.6838C27.3045 47.6353 25.7828 49.9479 25.7795 51.9397C25.7758 53.9531 27.3778 56.3953 31.3094 60.3694L35.8679 64.9177C40.5008 69.6009 43.3111 68.5335 46.8791 64.9269L46.9222 64.8846C49.0233 62.8873 51.369 60.4419 52.7575 57.9018C54.8687 57.7208 56.4441 56.8208 57.6304 56.0548C56.6154 60.5978 52.8812 64.6475 49.6238 67.7456C47.5642 69.8235 44.8239 72 41.4427 72Z" fill="#67E5AD"/>
</svg>

<svg xmlns="http://www.w3.org/2000/svg" viewBox="0 0 80 80">
  <rect width="100%" height="100%" fill="#fff"/>
  <path fill="#7A67F8" fill-rule="evenodd" d="M52.2 58c-3.7 0-7-2.6-11-6.7l-8.8-8.9 2.8-2.8 8.8 8.9c3.9 4 6.2 5.5 8.2 5.5 2 0 4.4-1.7 8.3-5.6l4.5-4.6c2.3-2.3 3.3-4.3 3-6.1-.1-1.5-1-3.1-3-5v-.1c-2.1-2.2-4.6-4.7-7.3-6-.5-2.6-2-4.6-2.3-5 4.8.7 9.1 4.8 12.4 8.3 3.5 3.5 7.4 9.2 0 16.7l-4.5 4.6c-4.2 4.1-7.5 6.7-11.1 6.7Z" clip-rule="evenodd"/>
  <path fill="#F85977" fill-rule="evenodd" d="m40.3 44.7 8.2-8.4c4-4 5.5-6.2 5.5-8.2 0-2-1.6-4.5-5.6-8.5L44 15.1c-4.7-4.7-7.5-3.6-11 0-2 1.9-4.2 4.1-5.6 6.5-1.3 0-3 .5-5 1.9 1-4.4 4.7-8.2 7.8-11.2 3.6-3.6 9.1-7.5 16.5 0l4.6 4.5c4.1 4.2 6.7 7.5 6.7 11.3 0 3.6-2.6 7-6.6 11L43 47.5l-2.7-2.8Z" clip-rule="evenodd"/>
  <path fill="#159BFF" fill-rule="evenodd" d="M24 57.7c-4.6-1-8.7-4.8-11.8-8.1a13.1 13.1 0 0 1-4.1-7.4c-.4-3 1-6.1 4.1-9.3l4.5-4.6c4.2-4.2 7.4-6.8 11.1-6.8 3.7 0 7 2.6 11 6.7l9 9-2.8 2.7-9-9c-3.9-3.9-6.2-5.4-8.2-5.4-2 0-4.4 1.6-8.3 5.6L15 35.7c-2.3 2.3-3.3 4.3-3 6.1.1 1.5 1 3 3 5 2 2.2 4.4 4.5 6.9 6 .2 2.2 1.5 4.2 2 5Z" clip-rule="evenodd"/>
  <path fill="#67E5AD" fill-rule="evenodd" d="M41.4 72c-2.4 0-5.2-1.1-8.3-4.3l-4.5-4.5c-9-9-9-13.4-.2-22.3l8.7-8.8 2.8 2.7-8.7 8.9c-3.9 4-5.4 6.2-5.4 8.2 0 2 1.6 4.5 5.5 8.5l4.6 4.5c4.6 4.7 7.4 3.6 11 0a31 31 0 0 0 5.9-7c2-.2 3.6-1 4.8-1.8-1 4.5-4.7 8.5-8 11.6-2 2.1-4.8 4.3-8.2 4.3Z" clip-rule="evenodd"/>
</svg>
